X:77
T:Boys of the Town, The
R:jig
Z:Transcribed by Dave Marshall
M:6/8
K:G
|:~G3 GBd|edB dBA|~G3 GBd|edB AFD|
~G3 GBd|edB ~g3|edB AGA| BGF G3 :|
|:def ~g3|afd edB|def ~g3|afd e2B
|1 def gfg|afd efg|edB AGA|BGF GAB:|2 
def gbb|faa efg|edB AGA|BGF G2D|
